X:37
T:George's Peoples
C:Seamus Gibson
R:reel
D:"Each Little Thing" from Sharon Shannon
Z:Transcribed by Lionel Gueganton
L:1/8
M:4/4
K:C
|: Ad dd de fg       | ad d/d/d c'd bd | ad d/d/d cd ef  | gc Bc Gc ec | 
   Ad d/d/d fA eA    | dc Ad cA Gc     | Af ec dc Ad     |1 cA GE D3c :|2 cA GE D3C 
|: A,D D/D/D FE DF   | EC EG ce dB     | cA GE CD EG     | A2 AG ED DC | 
   A,D D/D/D FE DE   | C2 EC A,2 CA,   | _B,B, DB, CC EG |1 Ac GE D3C :|2 Ac GE D3c
|: [dd]d d/d/d df ec | dc Ad cA GE     | FF AF G2 cd     | e2 ed cA Gc | 
   Ad dd fA eA       | dc Ad cA Gc     | Af ec dc Ad     |1 cA GE D3c :|2 cA GE D4

